X:1
T:Blue Bottle
M:2/4
L:1/8
K:C
 z2 z E| G2 GG| GG A2| G2 E2| C2 z2| cc c2| cd ee| dc A2| c2 z2| cc c2|\
 cd ee| dc A2| c2 z C| EF G2| GG CC| E3/2 F/2 G3/2 E/2| G4-| G4| z2 z C|\
 EF G2| GG CC| EF G^F| G4-| G2 z2|
